X:1
T:Buxtehude - Trio Sonata No.1 in F. {Professional production full score.}
%%score [ 1 2 3 ] { ( 4 6 7 ) | ( 5 8 ) }
L:1/8
Q:1/4=110
M:4/4
K:F
V:1 treble nm="Violino."
V:2 alto nm="Viola da gamba."
V:3 bass nm="Cembalo."
V:4 treble nm="Harpsichord"
V:6 treble 
V:7 treble 
V:5 bass 
V:8 bass 
V:1
"^Vivace.""^S o n a t a  I."!f! c2 z c c2 z c | c2 z c c3 B/A/ | B3 A/G/ A2 G>F | E3 F G3 C | %4
 F2 z E A2 z G | c2 z A d3 d | c3 d/c/ BABc/B/ | A3 A AG/F/ Gc | (BA) (dc) (BA) G2 | c3 B AcBA | %10
 GFED (^C/>D/E/<F/) E>D | ^C3 A EFGA | F2 z2 F2 z2 | z B dc BcBA | GAB>c ABcd | G2 AB A2 MG2 | %16
 F>f A>=B c>f A>B | c8 | z fA>=B c>fA>B | c8 | z fd>c =B2 z2 | z ge>d c2 z2 | z af>e d2 z2 | %23
 z dc>=B c2 z2 | z c=B>A Bdc>B | c2 z2 z dP=B>B | !fermata!c8 || %27
!mp![Q:1/4=50]!mp!"^Lento." z (BBB) z (BBB) |!mp!!mp! z (_AAA) z (AAA) |!mp!!mp! z (_AAA) z (AAA) | %30
!mp!!mp! z (!>!_A!>!A!>!A) z (!>!A!>!A!>!A) | z2 G2 G4 | !fermata!F8 || %33
"^Allegro." z[Q:1/4=90]!mf! Fc>c dc/B/ A/c/=B/d/ | c/c/B/A/ G/B/A/c/ B/B/A/G/ F/A/G/B/ | %35
 A/B/A/F/ c/=B/c/E/ F/G/F/E/ F/E/D/E/ | C/c/c/c/ A/A/d/d/ c2- c/B/A/c/ | %37
 B2- B/A/G/B/ A2- A/G/F/A/ | G>c A>f d/_e/d/c/ d/c/B/c/ | A/A/A/A/ G/G/c/c/ A/A/A/B/ cd | %40
 z/ G/G/A/ Bc z/ F/F/G/ AB | c/d/c/A/ G>c ccMc>=B | c2 z2 z2 z f/_e/ | d2- d/c/B/d/ c2- c/B/A/c/ | %44
 B2- B/A/G/B/ Aa/b/ a/g/f/g/ | ec f>f ag/f/ e/g/^f/a/ | g/g/f/e/ d/f/e/g/ f/f/e/d/ c/e/d/f/ | %47
 e/f/e/c/ f/e/f/A/ B/c/B/A/ B/A/G/A/ | F/f/f/f/ e/e/a/a/ f2- f/_e/d/f/ | %49
 _e2- e/d/c/e/ d2- d/c/B/d/ | c>f e>g a/b/a/g/ a/g/f/g/ | e/e/e/e/ c/c/f/f/ e/e/e/f/ ga | %52
 z/ d/d/e/ fg z/ c/c/d/ ef | g/f/g/e/ a>a gg/f/ Pf>e | f2 z2 z/ f/e/d/ e/d/c/d/ | %55
 =Be/B/ c/e/d/f/ ea/e/ f/a/g/_b/ | a2- a/b/a/f/ g2- g/a/g/e/ | f2- f/g/f/d/ eaMd>c | c2 z2 z4 | %59
 z A/c/ A/c/A/c/ BB/d/ B/d/B/d/ | Gg/b/ g/b/g/b/ ^f/F/A/F/ g/G/B/G/ | %61
 dD/g/ _e/g/A/c/ ^FG/A/ BA/G/ | G/A/B/c/ d/_e/f/g/ f2 z2 | z/ f/_e/d/ c/d/e/f/ d/e/d/c/ B/c/d/e/ | %64
 c/d/c/B/ A/B/c/d/ B/c/B/A/ G/A/B/c/ | AFc>c dc/B/ A/c/=B/d/ | %66
 c/c/B/A/ G/B/A/c/ B/B/A/G/ F/A/G/B/ | A/B/A/F/ c/=B/c/E/ F/G/F/E/ F/E/D/E/ | %68
 C/c/c/c/ A/A/d/d/ c2- c/B/A/c/ | B2- B/A/G/B/ A2- A/G/F/A/ | G/A/G/E/ A/G/A/C/ D/_E/D/C/ D>G | %71
 F/G/F/_E/ F>B A/B/A/G/ A>d | c/d/c/B/ cf-[Q:1/4=60] f[Q:1/4=50]e/d/ e/A/a || %73
[Q:1/4=45]"^Adagio." z2!mf! a3 g (ga/e/) | f3- f/d/ _b4- | b2 a4 g2 | f2 ^c2 d2 e2- | e2 d4 c=B | %78
 c2 _BA ^G2 A2- | AG G3 AFE | FGEF !fermata!F4 | z2 F2 B4 | z2 A2 d4- | d2 c2 Tc3 B | %84
[Q:1/4=50] !breath!!fermata!c8 ||[M:6/8]"^Andante." z6 | z2 (c/d/ c3) | z2 (c/d/) c2- c/c/ | %88
 dG>B A3 | z/ c/d/e/f/=B/ e/G/A/_B/c/F/ | d/e/f/g/a/d/ e/c/e/f/g/G/ | z/ A/c/B/A/f/ e/g/a/g/f/e/ | %92
 d/f/A/f/G/e/ f/A/A/B/A/G/ | A/c/d/c/=B/f/ e/g/a/g/c'/c/ | d/g/f/e/a/d/ e/g/e/f/g/c/ | %95
 a/(.c/.c/.c/.c/.c/) (.c/.c/.c/.c/.c/.c/) | d/(.B/.B/.B/.B/.B/) A/(.a/.a/.a/.a/.a/) | %97
 a/b/a/g/a/=b/ c'/e/f/g/f/_e/ | d/_e/c/B/A/f/ =e/c'/b/a/g/b/ | ac'/b/a z e/g/f- | ff>e fc>c | %101
 c/A/=B/c/d z/ e/f/g/a | z/ c/d/e/f z/ e/A/=B/c | C z z z2 c | F/d/c/d/B/c/ A/G/F/G/E/e/ | %105
 A/f/d/c/c/=B/ c/e/f/g/a/g/ | f/e/f/g/a/b/ g/G/A/B/c/B/ | Ac/B/A z/ G/A/B/c/F/ | G/F<FE/ F2 z | %109
 z/ c/d/e/f/d/ e/g/a/b/c'/c/ | d/g/f/e/f/g/ e>dc- | c/(d<c)c/ (c/d<c)c/ | dPG>B AA/G/A/B/ | %113
 A2 z c/G/A/B/c/d/ | B/d/c/B/A/B/ Gc>B | A3 z/ G/A/B/c/d/ | B/A/G/B/A/G/ A z z | A z z z A/B/c | %118
 z/ d/c/B/A- AG/F/G | z2 A G z c- | c B2 Aa/b/a/g/ | a/b/a/g/f/g/ e2 f | d>ef e>dc | c3- c>dMc | %124
[Q:1/4=45] d[Q:1/4=40] G2 !fermata!F3 ||[M:4/4]"^Grave." z2!mp! F2 z F/D/ F>F | %126
 B4 z[Q:1/4=50] B/F/ MB>B | d4 z[Q:1/4=60] d/B/ Pd>d | f4 z f/d/ Mf>f | !breath!!fermata!b8 | %130
[Q:1/4=40] z2 d2 c4 | B4 A2 B2 | G4 F2 G2 | _E4 !fermata!D4 | z2 G2 F4 | z2 B2 !fermata!A4 || %136
"^Presto."[Q:1/4=110] z!f! dc>=B c2 z c/_B/ |!mp! Adc>=B c2 z c/_B/ | c!f!dc>=B c_BAc | %139
 cB MBA/G/ A2 z A | Gc/d/ cG z A/B/ AE | z F/E/ F/A/G/F/ E/c/c/c/ B/c/B/c/ | %142
 A/F/A/B/ c/c/c/c/ F/E/F/G/ F/G/A/A/ | Dd/c/ d/f/_e/d/ c/A/A/A/ A/B/A/B/ | %144
 G/c/c/c/ B/c/B/c/ A/F/A/B/ c/c/c/c/ | F/d/d/d/ c/d/c/d/ B/c/A/B/ G>G | Af/g/ fc z d/_e/ dA | %147
 z B/A/ B/d/c/B/ A/f/f/f/ f/g/f/g/ | e/c/e/f/ e/f/g/g/ c/=B/c/d/ c/d/e/e/ | %149
 A/G/A/B/ A/c/B/A/ G/E/e/f/ g/g/g/g/ | c/f/f/f/ _e/f/e/f/ d2- d/g/f/g/ | %151
 e2- e/a/g/a/ f2- f/b/a/b/ | g2 z/ c/d/c/ =BcTc>B | c/g/g/g/ f/g/f/g/ e/c/e/f/ g/g/g/g/ | %154
 cc'/d'/ c'g z a/b/ ae | z f/e/ f/a/g/f/ e/c'/c'/c'/ b/c'/b/c'/ | %156
 a/f/a/b/ c'/c'/c'/c'/ f/e/f/g/ f/g/a/a/ | d2 z g/g/ c2 z d/d/ | G/c/c/c/ B/c/B/c/ A2- A/d/c/d/ | %159
 =B2- B/e/d/e/ c2- c/f/_e/f/ | d3 c- cB/A/ B/d/c/B/ | A/d/d/d/ c/d/c/d/ =BGAB | %162
 z/ c/c/c/ _B/c/B/c/ A/F/A/B/ c/c/c/c/ | F/E/F/G/ F/G/A/A/ Dd/c/ d/f/_e/d/ | %164
 c/F/A/B/ c/c/c/c/ F/B/B/B/ _A/B/A/B/ | G2- G/c/B/c/ A2- A/d/c/d/ | B2- B/_e/d/e/ c2 z/ F/B/A/ | %167
 G (A/4B/4c/) B/A/G/F/ EFDE | FD/d/ c/d/B/c/ AG/F/ ME>D | Df/g/ fc z d/_e/ dA | %170
 z B/A/ B/d/c/B/ A2 z2 | z G/F/ G/B/A/G/ Ff/e/ f/a/g/f/ | e/d/e/f/ e/g/f/e/ dd/c/ d/f/e/d/ | %173
 e/c/e/f/ g/g/g/g/ c/=B/c/d/ c/d/e/e/ | Aa/g/ a/c'/b/a/ g/a/f/g/ a(g/f/) | fc/d/ cG z A/B/ AE | %176
 Ff/g/ fc z d/_e/ dA | B_e/f/ e2- e/f/d/e/ dc/B/ | z B/A/ B/d/c/B/ A2 z/ c/B/A/ | %179
 Gc/B/ Ac (G/A/B) MA>G | A/F/f/g/ fc dd/c/ d/f/_e/d/ | %181
!<(! c/c/A/A/[Q:1/4=90] d/d/B/B/[Q:1/4=70] BA/G/ MG>F!<)! |!fff! F2 z2 z4 |] %183
V:2
!f! A2 z A G2 z G | A2 z G AE F2- | FGCF/E/ FF/C/ D2- | DC/=B,/ C2- C_B,/A,/ B,A, | A,DDC CFFE | %5
 EAAF FBBB | BA/G/ AB/A/ GF G2- | GF/E/ F3 E/D/ EC | F_E D2 GF =E2- | E2 AG FGF_E | %10
 DCB,A, G,F,G,3/2F,/4G,/4 | A,AEF ^CDEF | D2 z2 D2 z2 | z G BA GAGF | E2 FG- G2 F2- | FEFG CFMF>E | %16
 F2 z2 z4 | z AG>F EGF>E | F2 z2 z4 | z AEF GEA>G | FAF>E D2 E>F | GEG>F E2 F>G | AFA>G FAG>F | %23
 G2 z2 z GF>E | F2 z2 z AG>F | E2 z2 z AMF>G | !fermata!E8 ||!mp! z (FFF) z (GGG) | %28
!mp! z (FFF) z (FFF) |!mp! z (FFF) z (FFF) |!mp! z (!>!F!>!F!>!F) z (!>!F!>!F!>!F) | z2 F2 TF2 E2 | %32
 !fermata!F8 || z8 | z8 | z8 | z!mf! CF>F AG/F/ E/G/^F/A/ | G/G/F/E/ D/F/E/G/ F/F/E/D/ C/E/D/F/ | %38
 E/F/E/C/ F/E/F/A,/ B,/C/B,/A,/ B,/A,/G,/A,/ | F,/F/F/F/ E/E/G/G/ F2- F/_E/D/F/ | %40
 _E2- E/D/C/E/ D2- D/C/B,/D/ | C>F E>G A/B/A/G/ A/G/F/G/ | E/E/E/E/ C/C/F/F/ E/E/E/F/ GA | %43
 z/ D/D/E/ F2 z/ C/C/D/ EF- | F/F/G/F/ E>E FF, z2 |[K:bass] z/ C/C/C/ A,/A,/D/D/ C2- C/B,/A,/C/ | %46
 B,2- B,/A,/G,/B,/ A,2- A,/C/=B,/D/ | C>A, D>F, G,>B,, C,2 |[K:tenor] z F,C>C DC/B,/ A,/C/=B,/D/ | %49
 C/C/B,/A,/ G,/B,/A,/C/ B,/B,/A,/G,/ F,/A,/G,/B,/ | %50
 A,/B,/A,/F,/ C/=B,/C/E,/ F,/G,/F,/E,/ F,/E,/D,/E,/ | C,/C/C/C/ A,/A,/D/D/ C2- C/B,/A,/C/ | %52
 B,2- B,/A,/G,/B,/ A,2- A,/G,/F,/A,/ | G,>C A,>C D/_E/D/C/ D/C/B,/C/ | %54
[K:bass] A,/G,/F,/E,/ D,/E,/D,/C,/ =B,,/D,/C,/B,,/ C,/B,,/A,,/B,,/ | %55
 G,,>G, A,/C/=B,/D/ C/B,/C/C,/ D,/F,/E,/G,/ | F,/G,/F,/E,/ F,>D, E,/F,/E,/D,/ E,>C, | %57
 D,/E,/D,/C,/ D,>=B,, C,^F,, G,,2 | C,/E,/C,/E,/ D,/F,/D,/F,/ E,/G,/E,/C,/ A,,/B,,/G,,/A,,/ | %59
 ^F,,2 F,,/A,,/F,,/A,,/ G,,2 G,/B,/G,/B,/ | _E,2 E,/G,/E,/G,/ D,2 z/ E,/G,/E,/ | %61
 B,>B,, C,/_E,/C,/E,/ D,E,C,D, | G,,2 z2[K:alto] D,/E,/F,/G,/ A,/B,/C/D/ | %63
 C/D/C/B,/ A,/B,/C/D/ B,/C/B,/A,/ G,2- | G,A,/G,/ F,3 G,/F,/ E,>E, | %65
 F,/F/F/F/ E/E/A/A/ F2- F/_E/D/F/ | _E2- E/D/C/E/ D2- D/C/B,/D/ | C>A, G,>C CC MC>=B, | %68
 C[K:bass]C, F,>F, A,G,/F,/ E,/G,/^F,/A,/ | G,/G,/F,/E,/ D,/F,/E,/G,/ F,/F,/E,/D,/ C,/E,/D,/F,/ | %70
 E,/F,/E,/C,/ F,/E,/F,/A,,/ B,,/C,/B,,/A,,/ B,,/A,,/B,,/G,,/ | %71
 D,/_E,/D,/C,/ D,/C,/D,/B,,/ F,/G,/F,/=E,/ F,/E,/F,/D,/ | A,/B,/A,/G,/ A,/G,/A,/F,/ C2 z2 || %73
[K:alto]!mf! z8 | z8 | z8 | z2 E2 A3 G | F2 A4 G2- | G2 F2 E4 | D3 E ^C2 D2- | D2 ^C2 !fermata!D4 | %81
 z2 D4 E2 | F4 z2 B2- | B2 A2 TA3 G | !fermata!A8 ||[M:6/8] z6 | z6 | z6 | z6 | z6 | z6 | z6 | z6 | %93
 z6 | z6 | z6 | z6 | z6 | z2 (C/D/) C3 | z2 (C/D/) C2- C/C/ | DG,>B, A,3 | %101
 z/ C/D/E/F/=B,/ E/G,/A,/_B,/C/F,/ | D/E/F/G/A/D/ E/C/E/F/G/G,/ | z/ A,/C/B,/A,/F/ E/G/A/G/F/E/ | %104
 D/F/A,/F/G,/E/ F/B,/C/D/C/E,/ | F,A/G/F/G/ E/G/A/B/c/E/ | D/C/D/E/F/G/ E/D/E/F/G | %107
 CA,/G,/F, C/E,/F,/G,/A,/C/ | B,/A,/G,/A,/B,/C/ A,/C/D/E/F/G/ | A/A,/=B,/C/D/B,/ C2 z | %110
 z/ D/C/B,/A,/B,/ G,E,/F,/G, | A,C/B,/A,/F/ EF/G/A | G/F<PFE/ FF/E/F/G/ | F/C/D/E/F/G/ EF/G/A | %114
 D>EF EE/F/G- | GF/E/F- F/E/F/G/A/B/ | G/F/E/G/F/E/ F z z | F z z z F/G/A | D>EF- FE/D/C/B,/ | %119
 A,/B,/A,/G,/F,/F/ E z A- | A G2 F[K:bass]F,/G,/F,/E,/ | F,/G,/F,/E,/D,/E,/ C,/D,/C,/B,,/A,,/C,/ | %122
 B,,/C,/A,,/G,,/A,,/F,,/ C,/=B,,/C,/D,/E,/C,/ | F,/G,/A,/G,/A,/F,/ CC,/B,,/MA,, | %124
 B,, C,2 !breath!!fermata!F,,3 ||[M:4/4] z8 | z!mp! B,F,D, B,,4 | z B,F,D, B,,4 | z B,F,D, B,,4 | %129
 !fermata!B,,8 |[K:alto] z4 z2 F2- | F2 _E4 D2- | D2 C4 B,2- | B,2 A,2 !fermata!B,4 | z2 D2 C4 | %135
 z2 E2 !breath!!fermata!F4 || z!f! AGF GEFG |!mp! CAGF GEFG | C!f!AGF GE z C | DG/F/ ME>E F2 z F | %140
 E2 z2 z4 | z8 | z F/G/ FC z D/_E/ DA, | z B,/A,/ B,/D/C/B,/ A,/F/F/F/ F/G/F/G/ | %144
 E/C/E/F/ G/G/G/G/ C/F/F/F/ _E/F/E/F/ | D/B/B/B/ A/B/A/B/ D/E/F F>E | %146
 F/C/D/E/ F/F/F/F/ B,/A,/B,/C/ B,/C/D/D/ | %147
 G,/F,/G,/A,/ G,/B,/A,/G,/ F,[K:bass] F,/E,/ D,/E,/D,/E,/ | C,[K:alto] C/D/ CG, z A,/=B,/ A,E, | %149
 z F,/E,/ F,/A,/G,/F,/ E,/C/C/C/ B,/C/B,/C/ | A,/F,/A,/B,/ C/C/C/C/ F,/B,/A,/B,/ G,2- | %151
 G,/C/B,/C/ A,2- A,/D/C/D/ B,2- | B,/A,/G,/B,/ A,F/E/ DG/A/ F/G/F/G/ | E2 z2 z/ C/C/C/ B,/C/B,/C/ | %154
 A,/F,/A,/B,/ C/C/C/C/ F,/E,/F,/G,/ F,/G,/A,/A,/ | D,D/C/ D/F/E/D/ C/C/E/F/ G/G/G/G/ | %156
 CF/G/ FC z D/_E/ DA, | z B,/A,/ B,/D/C/B,/ A,/F/F/F/ F/G/F/G/ | E/C/E/F/ G/G/G/G/ C/F/_E/E/ D2- | %159
 D/G/F/G/ E2- E/A/G/A/ F2- | F/E/_D/F/ E/D/E/C/ D[K:bass]D,G,G,, | %161
 D,D,, z2 z/ G,/G,/G,/ F,/G,/F,/G,/ | E,C, D,E, z F,/G,/ F,C, | %163
 z D,/_E,/ D,A,, z B,,/A,,/ B,,/D,/C,/B,,/ | F,/[K:alto]F/F/F/ _E/F/E/F/ D/B,/D/E/ F/F/F/F/ | %165
 B,/_E/D/E/ C2- C/F/E/F/ D2- | D/G/F/G/ _E2- E/D/C/E/ D>D | =E F2 E/D/ ^CD=B,^C | %168
 D2 z E FE/D/ MD>^C | D2 z2 z4 |[K:bass] z4 z F,/E,/ F,/A,/G,/F,/ | %171
 E,>D, E,C, z D,/C,/ D,/F,/E,/D,/ | C,[K:alto]C/=B,/ C/E/D/C/ B,>A, B,G, | %173
 z C/D/ CG, z A,/=B,/ A,E, | z F,/E,/ F,/A,/G,/F,/ CD B,C | %175
 F,/[K:bass]F,,/A,,/B,,/ C,/C,/C,/C,/ F,,F,/G,/ F,C, | z D,/_E,/ D,A,, B,,B,/C/ B,F, | %177
 G,C/D/ CG, A,B, _E,F, |[K:bass] B,,2[K:alto] z/ F/_E/D/ CF/=E/ F/A/G/F/ | E G2 F- FF MF>E | %180
 F2 z2[K:bass] z B,/A,/ B,/D/C/B,/ |!<(! A,/A,/F,/F,/ B,/B,/G,/G,/ C>B,, C,2!<)! | %182
!fff! F,,2 z2 z4 |] %183
V:3
 F,2 z F,"^6" E,2 z"^6" E, | F,2 z"^6" E, F,C,"^7   6" D,2- | %2
"^6" D,E,"^4  3" F,3"^6" A,,"^6   5" =B,,2 |"^9          8" C,3 D,"^6         5" E,3 F, | %4
 D,2 z A, F,2 z C | A,2 z D B,>A,G,>F, |"^6\n5" E,"^6 5"C,"^5    6" F,2-"^4\n2" F,2"^5" E,2 | %7
"^9" F,G,"^6"A,F,"^6          5" C3 A, |"^6" D"^6\n"C B,A, G,2 CB, | %9
 A,G, F,3"^6" _E,"^6"D,"^6\n"C, |"^6" B,,"^6"A,,"^6"G,,"^6""^6"F,,"^6#" E,,D,,"^6\n4   3" B,,2 | %11
"^#" A,,8 | z D,"^6" F,E, D,C,B,,A,, | G,,2 z2 G,,2 z2 | z"^6" C,"^6"D,E,"^9" F,G,"^6"A,B, | %15
"^4   3" C2"^6" A,E, F,"^6"A,,"^6\n5"B,,C, | F,,2 z2 z4 | %17
 z F,"^6"E,>"^6"D,"^6" C,"^6"B,,"^6"A,,>"^6"G,, | F,,2 z2 z4 | z F,C,D,"^6" E,C,F,>E, | %20
 D,2 z2 z"^(6?)" A,"^6" G,>"^6"F, |"^6" E,2 z2 z"^6" B,"^6"A,>"^6"G, | %22
 F,2 z2 z"^6" F,"^6"E,>"^6(#?)"D, |"^6" E,2 z2 z"^6" E,"^6#"D,>"^6"C, | %24
"^6#" D,2 z2 z"^6" F,"^6"E,>"^6#"D, | C,>B,,"^6" A,,G,,/F,,/"^6" E,,"^6"F,,"^6#" D,,2 | %26
 !fermata!C,,6 C,2 ||!mp!!mp!"^6" D,4"^6\n5" E,4 |"^" F,4 _D,4 |"^8\n6" _A,,4"^7\n\n5" B,,4 | %30
"^6\n\n4" !>!C,4"^5" !>!_D,4 |"^6\n4" C,2"^6\n5" =B,,2"^4       3" C,4 | !fermata!F,,8 || z8 | %34
 z8 | z8 | z8 | z8 | z8 | z F, C>C DC/B,/"^6" A,=B, | %40
"^" CB,/A,/"^6\n\n4" G,A, B,A,/G,/"^6" F,G, | %41
"^6" A,/B,/A,/F,/ C/=B,/C/"^6"E,/ F,/G,/F,/E,/ F,/E,/"^7"D,/G,/ | %42
 C,/C/C/C/ A,/A,/D/D/ C2- C/B,/"^6"A,/"^6\n"C/ | %43
"^7" B,2-"^6" B,/A,/G,/B,/"^7" A,2-"^6" A,/G,/F,/A,/ |"^7" G,2"^7" C2 F,3 F, | %45
 CA,F,B, A,B,C"_6#"A, |"_6" B, z z"_6" G,"_6" A, z z"_5" =B, | %47
 C>A, D>F,"_7" G,>"_6\n5"B,,"_4" C,>"_3"C,, | F,,2 z2 z4 | %49
 z/"^" C,/C,/D,/"^6\n5" _E,F, B,,/B,/A,/G,/"^6" F,G, | %50
"^6" A,>F, C>"^6"E,"^6" F,>E,"^6" F,"^6#"D, | z C,F,>F, A,G,/F,/"^6" E,^F, | %52
 G,F,/E,/"^6" D,E, F,E,/D,/"^6" C,D, | %53
"^6" E,/D,/E,/C,/ F,/E,/F,/"^6"A,,/"^6" B,,/C,/B,,/"^6"A,,/ B,,/A,,/"^7"G,,/C,/ | %54
 F,,F,D,>C,"^5" =B,,2 C,"^6#"A,, |"^" G,,G,"^6"A,=B, C"^6"C,"^7"D,"^6"E, | %56
 F,>E,"^5" D,2"^6" E,>D, C,2 | D,>C,"^6\n5" =B,,2 C,"^6\n5"^F,,"^(#)" G,,2 | %58
"^6 ?" C,2"^ 4 ?" =B,,2 C,2"^6" A,,"^(6)()"G,, |"^6          5" ^F,,3 F,, G,,2 G,>B, | %60
 _E,2 E,>G,"^#" D,2 _E,2 |"^6" B,,2"^6\n" C,2"^#" D,_E,"^7\n5"C,"^#"D, | %62
 G,,>A,,"^6" B,,>G,, D,2"^6\n" C,>"^6"B,, |"^6" A,,2 z"^5\n" A,, B,,2 _E,"^6"B,, | %64
"^7" A,,2 D,"^6"A,,"^7" G,,2 C,2 | F,,2 z F, D,3"^" G, |"^" C,3 F, B,,3"^6" B,, | %67
 F,2"^6" E,2"^7" D,3"^" G, |"^6" E,>C,"^5" F,2"^6" A,G,/F,/"^6" E,^F, | %69
 G,F,/E,/ D,E, F,E,/D,/"^6" C,D, |"^6""^6" E,>C, F,>"^6"A,, B,,>A,, B,,>G,, | %71
 D,>"^"C, D,>B,, F,>=E, F,>D, | A,>G, A,>F,"^4 3" C2 z2 ||!mf!"^6               5" ^C8 | %74
 D2"^6" D,4"^5" E,2 |"^4      3" F,4"^3      6" B,4 |"^6      5\n4      #" A,4"^6" F,2"^6" ^C,2 | %77
"^9" D,2"^6" F,2"^7" =B,,2"^6   5" E,2 |"^7" A,,2"^65" D,2"^4#\n2" D,2"^6" C,2 | %79
"^7" =B,,2"^" _B,,2"^7\n#" A,,2"^7\n5" G,,2 |"^6          5\n4          #" A,,4 !fermata!D,,4 | %81
 z2 B,,2 G,,4 | D,4 z2 B,,2 |"^6       5\n4       3" F,8 | !fermata!F,8 || %85
[M:6/8] F,F,/"^6?"E,/D, C,C,/B,,/"^6"A,, | B,,A,,/G,,/F,, C,C,/D,/"^6"E, | %87
 F,"^6"A,/G,/F, CC,/B,,/"^6"A,, |"^5" B,,"^4     3" C,2 F,,F,/G,/F,/E,/ | %89
 F,F,/E,/"^6(#)"D, C,C,/B,,/"^6"A,, | B,,A,,/G,,/"^(6)"F,, C,C,/D,/"^(6)"E, | %91
 F,"^6"A,/G,/F, CC,/B,,/"^6"A,, |"^6\n5" B,,"^6    5\n4    3" C,2 F,,F,/G,/F,/E,/ | %93
 F,F,/E,/"^6\n#"D, C,C,/_B,,/"^6"A,, | B,,A,,/G,,/"^(6)"F,, C,C,/D,/"^(6)"E, | %95
 F,"^6"A,/G,/F, CC,/B,,/"^6"A,, |"^6\n5" B,,"^4         3" C,2 F,,F,/G,/F,/E,/ | %97
 F,F,/E,/D, C,C,/_B,,/"^6"A,, | B,,A,,/G,,/F,, C,"^6"C,/D,/E, | F,"^6"A,/G,/F, CC,/B,,/"^6"A,, | %100
"^6\n5" B,,"^4    3" C,2 F,,F,/G,/F,/E,/ | F,F,/E,/"^6#"D, C,C,/_B,,/"^6"A,, | %102
 B,,A,,/G,,/F,, C,C,/D,/E, | F,"^6"A,/G,/F, CC,/B,,/"^6"A,, | %104
 B,,"^4     3" C,2 F,,/G,,/"^6"A,,/B,,/C, | F,F,/E,/"^76#"D, C,C,/_B,,/"^6"A,, | %106
 B,,A,,/G,,/F,, C,C,/D,/E, | F,"^6"A,/G,/F, CC,/B,,/"^(6)"A,, | B,,"^4     3" C,2 F,,F,/G,/F,/E,/ | %109
 F,F,/E,/"^(6)"D, C,C,/_B,,/"^6"A,, | B,,A,,/G,,/F,, C,C,/D,/"^6"E, | F,A,/G,/F, CC,/B,,/A,, | %112
 B,,"^4 3" C,2 F,,F,/G,/F,/E,/ | F,F,/E,/"^6"D, C,C,/B,,/A,, | B,,A,,/G,,/F,, C,C,/D,/"^6"E, | %115
"^9" F,"^6"A,/"^6"G,/F,"^43" C"^6\n4"C,/"^8\n6"B,,/"^2"A,, |"^(8)" B,, C,2 F,,F,/G,/F,/E,/ | %117
 F,F,/E,/"^(6)"D, C,"^6\n4"C,/"^8\n6"B,,/"^6"A,, | B,,A,,/G,,/F,,"^6\n4" C,"^5\n3"C,/D,/"^6"E, | %119
 F,"^6"A,/G,/F, CC,/B,,/"^6"A,, |"^9\n7" B,,"^7\n5" C,2 F,,F,/G,/F,/E,/ | %121
 F,F,/"^6"E,/D, C,C,/B,,/"^6"A,, | B,,A,,/G,,/F,, C,C,/D,/E, | F,"^6"A,/G,/F, CC,/B,,/A,, | %124
"^6\n5" B,,"_4 3" C,2 !fermata!F,,3 ||[M:4/4]!mp! B,,8- | B,,8- | B,,8- | B,,8- | !fermata!B,,8 | %130
 B,4-"^2\n4" B,2"^6" A,2 |"^7    6" G,4"^7" F,2 G,2 |"^7     6" _E,4"^7" D,2 E,2 | %133
"^7      6\n        " C,4 !fermata!B,,4 | z2"^6" B,2"^6" A,4 | z2"^6" G,2 !fermata!F,4 || %136
 z"^6"!f! F,"^6"E,"^76#"D,"^6" E,C,D,E, |!mp! z"^6" F,"^6"E,"^7(6#)"D,"^6" E,C,D,E, | %138
 z!f!"^6" F,"^6"E,"^7(6#)"D,"^6" E,C,F,"^6"A,, |"^6" B,,G,,"^7" C,2 F,,F,"^6"A,F, | %140
 C2 z"^6" E, F,2 z C, | D,2 z"^6" =B,, C,2"^6" D,E, | F,D,"^6"A,,A, B,2 z"^6" F, | %143
 G,2"^6" D,"^5"_E, F,F,, z F, | C2 z"^6\n5" E, F,2 z"^6\n5" A,, | %145
 B,,2 z F,, G,,"^6"A,,"^6\n5"B,,C, | F,,2[K:alto] z F B,2 z D |"^7" G,2[K:bass] z C, F,2 z"^6" D, | %148
 C,2 C"^6\n"G, A,2 z"^6" E, | F,F,, z2 z C,/D,/"^5 " E,>E, | %150
 F,F,,/G,,/"^5 " A,,>A,, B,,2 z"^6" =B,, | C,2 z"^6\n5" ^C, D,2 z"^6\n5" D, | %152
"^6\n5" E,2"^5   6" F,2-"^6\n4#" F,"^6"E,"^7    6#" D,2 | C,C"^6"A,=B, C2 z"^6" _B, | %154
"^6" A,2 z C F,2 z"^#" A, | D,2 z"^" G, A,2 z"^6\n5" E, | F,D,"^6" A,,2 B,,2 B,F, | %157
 G,2 z"^6" E, F,2 z"^6\n5" =B,, | C,2 z"^6\n5" E, F,2 z"^6\n5" ^F, | %159
"^" G,2 z"^6\n5" ^G, A,2 z"^6" A, | B,=B,"^9  6  4?\n" C2"^7\n#" D"^6 5"D, G,G,, | %161
"^#" D,2"^6" E,^F,"^" G,"^6"E,F,"^6#"D, |"^6" E,C,"^6" D,E, F,F,, z C, | %163
 D,D,, z"^6" A,, B,,2 z/ D,/"^"C,/B,,/ | F,>G,"^5" A,>A, B,B,,/"_"C,/"^5" D,2 | %165
 _E,2 z"^6\n5" =E, F,2 z"^6\n5" ^F, | G,2 z"^5\n6" G,"^6\n5" A,2 B,2- | %167
"^2" B,"^6"A,"^7      6  5" G,2-"^4#" G,"^6    4#" F,2"^6#" E, | D,B,A,"^6"G, F,G,"^4"A,"^#"A,, | %169
 D,2 D"^6"A, B,B,,B,"^6"F, | G,G,,G,"^6"E, F,>E, D,>"^6"=B,, | C,2 z"^6" C, D,D,, z"^6 5" G,, | %172
 C,CCD"^6" =B,>A, B,"^6 5"G, | CC, z"^6" G, A,A,, z"^6" E, | F,F,, z/"^6" A,/G,/F,/ CD"^7\n5" B,C | %175
 F,F,,"^6"A,,C, F,, z"^6" F,C, | D,D,, D,"^6"A,, B,,2"^6" B,F, | %177
 G,"^" C2"^6" G,"^6\n5" A,B,"^7\n5" _E,F, | B,,>"^"C,"^6" D,"^6"_E, F,>G,"^6" A,"^6"B, | %179
 C"^6"E,"^9"F,"^6"A,"^6\n5" B,"^7"G,"^6\n4" C"^5\n3"C, | F,>E, D,"^6"A,, B,,2 z/ D/"^"C/B,/ | %181
"^6" A,F, B,G,"^7   6\n3" C>"^6"B,,"^5\n4     3" C,2 | !fermata!F,,2 z2 z4 |] %183
V:4
"^Vivace."!f! [CA]2 z [CA] [CG]2 z [CG] | [CA]2 z [CG] Ac- cB | B2- BA A2 GF | E3 F G3 F | %4
 F2 z [CEA] [CEA]2 z [EGc] | [EAc]2 z [FAd] [Bd]4 | c2- cd B4 | A4- [FA][EG] [EG][EAc] | %8
 [FB][_EAc] [Bd]4 [=E-Gc]2 | [Ac-]4 ccd_e | [GBd][Fcf][GBe][Ad] [G^cg][Adf] ed | %11
 [A^ce]2 [A^c][FA] [^CEA]4 | z [A,DF] AG FAdc | [DGB]2 z2 [DGB]2 z2 | z A B2 A4 | G2 cB Ac PG2 | %16
 A2 z2 z4 | z [Ac] [Gc]>[FB] [EA][DG][CF]>[B,E] | [A,F]2 z2 z4 | z [FA][EG][DF] G2 A>G | %20
 F2 z2 z [CF] [=B,E]>[A,D] | [G,C]2 z2 z [DG][CF]>[B,E] | [A,F]2 z2 z [Ad][Gc]>[F=B] | %23
 [Gc]2 z2 z [Gc][F=B]>[EA] | [F=B]2 z2 z [Ad][Gc]>[FB] | c4 cd P=B2 | !fermata![EGc]8 || %27
!mp!"^Lento." !arpeggio![DFB]4 !arpeggio![CGB]4 | !arpeggio![CF_A]4 !arpeggio![_DFA]4 | %29
 !arpeggio![CF_A]4 !arpeggio![=DFA]4 | !>![CF_A]4 !>![_A,_DF]4 | F4- F2 E2 | !fermata![CF]8 || %33
"^Allegro." z8 | z8 | z8 | z8 | z8 | z8 | z c/d/ ec AA/B/ cd | GG/A/ Bc FF/G/ AB | %41
 [CF]2 [EG]>[Gc] [Ac]2- c>=B | c2- cA/B/ cG- GA- | A2 GB c2 A2 | B4 [FA]4 | GcAd c3 c | %46
 [GB] z z [B,E] [CF] z z [Fd] | [EG]>[Ec] [FA]>[FA] [FB]>[FG] G2 | [FA]2 z2 z4 | %49
 [G-c][GB-] [GB][FA] B2 AB | F>[FA] [=EG]>[Gc] [DFA][DAd] [DFA][DF=B] | [EGc]2 [FA]2 c4 | B4 A4 | %53
 G2 A>F [DG]>[CF] (FF/)E/ | FA A2 dF E/G/^F | G2 F/E/ D/G/ Gc-c_B | A4 [CG-]2 Gc | A2 G2- Gc P=B2 | %58
 cG/G/ GF E2 [CF][_B,!courtesy!_E] | D2 C2 [G,B,][Bd]/[Ac]/ [GB]>[DG] | B2 _e>B d2 B2 | %61
 [DG]2 [_EA]2 ^F/A/G- [B,G][A,F] | G2- G>B [FA]2 [_EA]>[DG] | [CF]2 z [_Ec] [DF]2 G2- | %64
 [CG]2 F2- FD EG | [A,F]2 z [FA] [FA]3 [D=B] | [_Ec]3 [FA] B4 | [FA]2 [Gc-]2 [Fc]3 [G=B] | c4- c4 | %69
 B4 A4 | G>E A>F F2- F>B | A2 A>B A>G A>A | c>B c>A G2 z2 ||"^Adagio."!mf! A4 G4 | A2 d=c B4- | %75
 B2 A4 G2 | [DF]2 [^CE]2 A4 | F2 A4 G2- | G2 F2 x2[I:staff +1] A,[I:staff -1]E | D4 ^C2 DB, | %80
[I:staff +1] A,[I:staff -1]D ^C2 !fermata!D4 | z2 [DFB]2 [DFB]4 | [DFA]4 z2 [FBd]2 | %83
 [FBd]2 [FAc]2 [FA]2 [A,CF][B,EG] | !fermata![CFA]8 ||[M:6/8]"^Andante." [CFA]2 [DFB] [EGc]2 [Fc] | %86
 [Fd]2 [FA] [EG]2 [CG] | AFA G2 [CF] | F2 E F/C/AG | FC [=B,F] [CE]F [CF] | [DF]2 [DA] [EG]2 [CG] | %91
 [CFA]2 [CFA] [CEG]2 [CFc] | GA[EG] [CFA]3 | A2 =B cG [Fc] | d2 d G2 [CG] | AF/G/A G2 F- | %96
 F2 E FCF/G/ | A2- A/=B/ c3 | dcc/d/ e>fg | c2- c/d/ e2 f/c/ | d/G/ G/A/ G A3 | C2 [=B,F] EG [CF] | %102
 F2 A G2 [CG] | AcA G2 [CF] | F2 E FC/D/E | F2 F [CE]2 [CF] | F2 A G3 | AFA G2 [CF] | F2 E FAA | %109
 A2 =B c2 [Fc] | [Fd]c[FA] G2 G | [CA]3 [EG]2 [CF] | [DF] FE FA/B/A/G/ | A2 A/B/ c2 c | %114
 d c2 G2 [G-c] | A3 GA/B/c/d/ | [GB] [EG]2 Acc | A2 B c/G/A/B/c | d>ef fec | Ac/B/A G2 F/A/ | %120
 AG/F/E FCA/G/ | A2 B c2 [Fc] | [Fd]>[Ge][Af] e>dc | Ac/B/A G2 F | FFE !fermata!F3 || %125
[M:4/4]"^Grave."!mp! [DFB]8- | [DFB]8 | !arpeggio![FBd]8 | !arpeggio![FBdf]8 | !fermata![DFB]8 | %130
 F4 EG F2- | F2 _E4 D2- | D2 C4 B,2- | B,2 A,2 !fermata!B,4 | z2 [DG]2 [CF]4 | %135
 z2 [B,EB]2 !fermata![CFA]4 ||"^Presto." z!f! dc>=B c3 _B |!mp! Ad c>=B c3 _B | Adc>=B c_B AF | %139
 GA/B/ B2 AA/G/FA | G2 z [CGc] [CFA]2 z [EA] | F2 z [DG] [CE][EGc]_Bc | A2 c2 [DFB]2 z [DAd] | %143
 [DGB]2 BG F2 z [CFA] | [CEG]2 z [CGB] [CEA]2 z [_EFc] | [DFB]2 z [CFA] [DG] F2 E | %146
 [CF]2 z [FA] [Fd]2 z [Fd] | [FB]2 z [Ec] [FA]2 z [FB] | [Ec]G G/A/=B c2 z [CG] | [CA]2 z2 z c B2 | %150
 A2 [_Ec]2 [DB]2 z [DGd] | [EGc]2 z [EGA] [DFA]2 z [FAB] | [CGB][GBc] cd [D=B][Ec] [FAc]B | %153
 [EGc]2 [Fc][DGd] [CEG]2 z [DG] | [CFc]2 z [CEG] [CFA]2 z [^CEA] | %155
 [DFA]2 z [DG=B] [CEc]2 z [CG_B] | [FA]2 [Fc]2 [FB]2- BA | [DB]2 z [CGc] [CFA]2 z [DFG] | %158
 [CEG]2 z [CGB] [CFA]2 z [DAc] | [DG=B]2 z [EBd] [EAc]2 z [Fc] | d2- dc- cB/A/ B2 | A2 c2 =BcAB | %162
 c2 _B2 A2 z [EG] | [DF]2 z [CF] [B,D]2 z/ F/_E/D/ | [A,C]3 [_Ec] FB [F_A]2 | %165
 [B,G]2 z [CGB] [CFA]2 z [DAc] | [DGB]2 z [_EB]/G/ [EF]2 [B,DF][DFB] | %167
 [Gc]2 [Bd]2 [EA^c][DAd][D=B][Ec] | [Ad]d [FA=c][GBe] [Acf][GBd]d^c | [FAd]2 dc d2 dA | %170
 B2- BG A2- A>G | G2 z [EA] [FA]2 z =B | c2 x A G3 =B | [Ec]2 z c/=B/ [Ec]2 z [CG] | %174
 [CA]2 z/ [FA]/[GB]/[Ac]/ [Ec][FA]- [FA][EG] | [FA]2 [Fc][EG] [FA] z [DA][CE] | F4- F2 GA | %177
 [DB] [_EG]2 B/G/ F2 GA | BF/A/ Bc A>G FG | [EG]cAc Gd/B/[FA][EG] | %180
 A3 [Fc] [Fd]2 z/ [FB]/[_EAc]/[FBd]/ | [Fc][Acf] dc/d/ [c-e][cf] fe | f2 z2 z4 |] %183
V:5
 F,2 z F, E,2 z E, | F,2 z E, F,C, D,2- | D,E, F,3 A,, =B,,2 | C,3 D, E,3 F, | D,2 z A, F,2 z C | %5
 A,2 z D B,>A,G,>F, | E,C, F,2- F,2 E,2 | F,G,A,F, C3 A, | DC B,A, G,2 CB, | A,G, F,3 _E,D,C, | %10
 B,,A,,G,,F,, E,,D,, G,2 | [A,,A,]8 | z D,F,E, D,C,B,,A,, | G,,2 z2 G,,2 z2 | z C, D,E, F,G,A,B, | %15
 C2 A,E, F,A,,B,,C, | F,,2 z2 z4 | z F, E,>D, C,B,,A,,>G,, | F,,2 z2 z4 | z F,C,D, E,C, F,>E, | %20
 D,2 z2 z A, G,>F, | E,2 z2 z _B,A,>G, | F,2 z2 z F,E,>D, | E,2 z2 z E,D,>C, | D,2 z2 z F,E,>D, | %25
 C,>B,, A,,G,,/F,,/ E,,F,, D,,2 | !fermata!C,,8 ||!mp! D,4 E,4 | F,4 _D,4 | _A,,4 B,,4 | %30
 !>!C,4 !>!_D,4 | _A,2 G,2 G,4 | !fermata![F,,=A,]8 || z8 | z8 | z8 | z8 | z8 | z8 | %39
 z F, C>C DC/B,/ A,=B, | CB,/A,/ G,A, B,A,/G,/ F,G, | %41
 A,/B,/A,/F,/ C/=B,/C/E,/ F,/G,/F,/E,/ F,/E,/D,/G,/ | C,/C/C/C/ A,/A,/D/D/ C2- C/B,/A,/C/ | %43
 B,2- B,/A,/G,/B,/ A,2- A,/G,/F,/A,/ | G,2 C2 F,3 F, | CA,F,B, A,B,CA, | B, z z G, A, z z =B, | %47
 C>A, D>F, G,>B,, C,>C,, | F,,2 z2 z4 | z/ C,/C,/D,/ _E,F, B,,/B,/A,/G,/ F,G, | %50
 A,>F, C>=E, F,>E, F,D, | z C,F,>F, A,G,/F,/ E,^F, | G,F,/E,/ D,E, F,E,/D,/ C,D, | %53
 E,/D,/E,/C,/ F,/E,/F,/A,,/ B,,/C,/B,,/A,,/ B,,/A,,/G,,/C,/ | F,,F,D,>C, =B,,2 C,A,, | %55
 G,,G,A,=B, CC,D,E, | F,>E, D,2 E,>D, C,2 | D,>C, =B,,2 C,^F,, G,,2 | C,2 =B,,2 C,2 A,,G,, | %59
 A,4 D,2 G,>B, | _E,2 E,>G, D,2 _E,2 | B,,2 C,2 D,_E, C,D, | G,,>A,, B,,>G,, D,2 C,>B,, | %63
 A,,2 z A,, B,,2 _E,B,, | A,,2 D,A,, G,,2 C,2 | F,,2 z F, D,3 G, | C,3 F, B,,3 B,, | %67
 F,2 E,2 D,3 G, | E,>C, F,2 A,G,/F,/ E,^F, | G,=F,/E,/ D,E, F,E,/D,/ C,D, | %70
 E,>C, F,>A,, B,,>A,, B,,>G,, | D,>C, D,>B,, F,>=E, F,>D, | A,>G, A,>F, C2 z2 || ^C8 | D2 D,4 E,2 | %75
 F,4 B,4 | A,4 F,2 ^C,2 | D,2 F,2 =B,,2 E,2 | A,,2 D,2 [^G,=B,]2 A,2- | A,=G, G,2- G,2 F,2 | %80
 F,2 E,2 [F,A,]4 | z2 B,,2 G,,4 | D,4 z2 B,,2 | F,8 | !fermata!F,8 || %85
[M:6/8] F,F,/E,/D, C,C,/B,,/A,, | B,,A,,/G,,/F,, C,2 E, | F,A,/G,/F, CC,/B,,/A,, | %88
 B,, C,2 F,,F,/G,/F,/E,/ | F,F,/E,/D, C,C,/_B,,/A,, | B,,A,,/G,,/F,, C,C,/D,/E, | %91
 F,A,/G,/F, CC,/B,,/A,, | B,, C,2 F,,F,/G,/F,/E,/ | F,F,/E,/D, C,C,/_B,,/A,, | %94
 B,,A,,/G,,/F,, C,C,/D,/E, | F,A,/G,/F, CC,/B,,/A,, | B,, C,2 F,,F,/G,/F,/E,/ | %97
 F,F,/E,/D, C,C,/_B,,/A,, | B,,A,,/G,,/F,, C,C,/D,/E, | F,A,/G,/F, CC,/B,,/A,, | %100
 B,, C,2 F,,F,/G,/F,/E,/ | F,F,/E,/D, C,C,/_B,,/A,, | B,,A,,/G,,/F,, C,C,/D,/E, | %103
 F,A,/G,/F, CC,/B,,/A,, | B,, C,2 F,,/G,,/A,,/B,,/C, | F,F,/E,/D, C,C,/_B,,/A,, | %106
 B,,A,,/G,,/F,, C,C,/D,/E, | F,A,/G,/F, CC,/B,,/A,, | B,, C,2 F,,F,/G,/F,/E,/ | %109
 F,F,/E,/D, C,C,/_B,,/A,, | B,,A,,/G,,/F,, C,C,/D,/E, | F,A,/G,/F, CC,/B,,/A,, | %112
 B,, C,2 F,,F,/G,/F,/E,/ | F,F,/E,/D, C,C,/B,,/A,, | B,,A,,/G,,/F,, C,C,/D,/E, | %115
 F,A,/G,/F, CC,/B,,/A,, | B,, C,2 F,,F,/G,/F,/E,/ | F,F,/E,/D, C,C,/B,,/A,, | %118
 B,,A,,/G,,/F,, C,C,/D,/E, | F,A,/G,/F, CC,/B,,/A,, | B,, C,2 F,,F,/G,/F,/E,/ | %121
 F,F,/E,/D, C,C,/B,,/A,, | B,,A,,/G,,/F,, C,C,/D,/E, | F,A,/G,/F, CC,/B,,/A,, | %124
 B,, C,2 !fermata!F,,3 ||[M:4/4] [B,,B,]8- | [B,,B,]8 | [B,,B,]8- | [B,,B,]8 | !fermata!B,,8 | %130
 B,4- B,2 A,2 | G,4 F,2 G,2 | _E,4 D,2 E,2 | _E,4 !fermata!D,4 | z2 B,2 A,4 | %135
 z2 G,2 !fermata!F,4 || z F,E,D, E,C,D,E, | z F,E,D, E,C,D,E, | z!f! F,E,D, E,C,F,A,, | %139
 B,,G,, C,2 F,,F,A,F, | C2 z E, F,2 z C, | D,2 z =B,, C,2 D,E, | F,D,A,,A, B,2 z F, | %143
 G,2 D,_E, F,F,, z F, | C2 z E, F,2 z A,, | B,,2 z F,, x A, G,2 | A,2 z F B,2 z B, | %147
 G,2 z C, F,2 z D, | C,2 CG, A,2 z E, | F,F,, z2 z C,/D,/ E,>E, | F,F,,/G,,/ A,,>A,, B,,2 z =B,, | %151
 C,2 z ^C, D,2 z D, | E,2 F,2- F,E, D,2 | C,CA,=B, C2 z _B, | A,2 z C F,2 z A, | %155
 D,2 z G, A,2 z E, | F,D, A,,2 B,,2 B,F, | G,2 z E, F,2 z =B,, | C,2 z E, F,2 z ^F, | %159
 G,2 z ^G, A,2 z A, | B,=B, C2 DD, G,G,, | D,2 E,^F, G,E,F,D, | E,C,D,E, F,2 z C, | %163
 D,2 z A,, B,,2 z/ D,/C,/B,,/ | F,>G, A,>A, B,B,,/C,/ D,2 | _E,2 z =E, F,2 z ^F, | %166
 G,2 z G, A,2 B,2- | B,A, G,2- G, F,2 E, | D,B,A,G, F,G, A,2 | D,2 DA, B,B,,B,F, | %170
 G,G,,G,E, F,>E, D,>=B,, | C,2 z C, D,D,, z G,, | C,CCD =B,>A,B,G, | CC, z G, A,A,, z E, | %174
 F,F,, z/ A,/G,/F,/ CD B,C | F,F,,A,,C, F,, z F,C, | D,D,, D,A,, B,,2 B,F, | G, C2 G, A,B, _E,F, | %178
 B,,>C, D,_E, F,>G, A,B, | CE,F,A, B,G,CC, | F,>E, D,A,, B,,2 z/ D/C/B,/ | A,F, B,G, C>B,, C,2 | %182
 F,,2 z2 z4 |] %183
V:6
 x8 | x4 CE/G/ F2- | FG C2 F2 D2- | DG, C2- C2 B,A, | x8 | x4 F2 G2 | [GB][EA]/G/ [FA]2 G4- | %7
 G2 F2 x4 | x2 F2 G2 x2 | E2 (F2 A)G[FB][_EA] | x6 [Gg]2 | x2 ED x4 | x2 [A,D][^CE] [DF]4 | x8 | %14
 x E FG- G>C F2- | FE FG F2 FE | F2 x6 | x8 | x8 | x4 CE C>^C | D2 x6 | x8 | x8 | x8 | x8 | %25
 EG F2 GA F2 | x8 || x8 | x8 | x8 | x8 | F2 D2 C4 | x8 || x8 | x8 | x8 | x8 | x8 | x8 | %39
 x A GF/E/ F2- F2 | _E4 D4 | x6 AF/G/ | EG/F/ EF E2 EE/_E/ | D2- DG- GC- CF- | FD EG x4 | %45
 E2 F2 F2 E^F | x8 | x6 FE | x8 | _E>D C2 [DF]4 | C>C C>C x4 | x4 EA GA | DG FG CF EF | C4 x2 DB, | %54
 A,C F>E FD C2 | =B,E/D/ CD E2 FG | FC F2 x2 E2 | F4 ED D2 | E2 D2 CG, x2 | x8 | G4 ^FG/A/ G2 | %61
 x4 D/C/B,- x2 | B,>C D2 z4 | x6 B,D | x2 DC B,3 B, | x8 | x4 D3 G | x8 | G>E A2 F2 GA | %69
 D>E FG C>D EF | C4 D>C D2 | F>_E F>D C2- C>F | E2 EF FE x2 || [Ee]8 | F4- F2 G2 | C4 D4 | %76
 x4 D2 E2- | E2 D2 F2 C=B, | C2 DA, x4 | x8 | x8 | x8 | x8 | x8 | x8 ||[M:6/8] x6 | x6 | C3 E2 x | %88
 D G,2[I:staff +1] A,[I:staff -1]C>B, | A,2 x4 | x6 | x6 | F2 z4 | CA/G/F E2 x | F>GA E>D x | %95
 C2 C/D/ ED/E/C | G,/D/CG, x3 | F3 EGF | F2 A G2 G | AFA G2 F | F2 E C3 | x3 C2 x | D3 E2 x | %103
 C3 E2 x | D G,2[I:staff +1] A,2 G, | A,[I:staff -1]D/C/ C/=B,/ x3 | D3 E>DC | C3 E2 x | %108
 D G,2[I:staff +1] A,[I:staff -1]CD/E/ | C2 F E2 x | F2 x E>DC- | x6 | x4 C2 | CA/G/F EGF | %114
 F2 A E2 x | GF/E/F- F/E/F/G/A/B/ | x3 CA/B/A/G/ | F3 EF/G/F | F>GA AGG | F3 E>DC- | C B,2 A,2 C | %121
 CA/G/ F EG x | x3 G3 | C2 F E>DC | D G,2 A,3 ||[M:4/4] x8 | x8 | x8 | x8 | x8 | D4 C4 | x8 | x8 | %133
 x8 | x8 | x8 || x AGF G4 | FAGF G4 | FAGF G2 FC | D2 EF/G/ C4 | E2 x6 | D2 x4 [DF][CG] | F4 x4 | %143
 x2 [DF][B,E] [A,C]2 x2 | x8 | x4 B,CDC | x8 | x8 | x2 E2- E2 x2 | x5 E/F/ G2 | F2 x6 | x8 | %152
 x2 [FA]2 G2 x2 | x8 | x8 | x8 | CD C2 D2- DC | B,2 x6 | x8 | x8 | F2 _EA/G/ ^F2 G2 | %161
 ^F2 GA G2 F2 | GEFG F2 x2 | x13/2 A,B,/ | x4 DD/_E/ x2 | x8 | x3 D C2 x2 | EF- FE/D/ x2 G2 | %168
 F[DF]/[EG]/ x4 [EA]2 | x2 F2- FF/_E/ D2 | D2- DC C2 F>D | E2 x5 E/D/ | EG/A/GF D3 E/D/ | x3 E x4 | %174
 x8 | x8 | A,2- A,C D2 D2 | x3 _E- ED- DD | D>_E FG F>=E CD | x G2 F F3 x | F3 x5 | %181
 x2 FB/G/ GA/G/ [Gc]2 | [Ac]2 x6 |] %183
V:7
 x8 | x8 | x8 | x8 | x8 | x8 | x4 D2 G2 | C4- C3 x | x8 | x8 | x8 | x8 | x8 | x8 | x8 | x8 | x8 | %17
 x8 | x8 | x8 | x8 | x8 | x8 | x8 | x8 | x8 | x8 || x8 | x8 | x8 | x8 | x8 | x8 || x8 | x8 | x8 | %36
 x8 | x8 | x8 | x8 | x8 | x8 | x8 | x8 | x8 | x8 | x8 | x8 | x8 | x8 | x8 | x8 | x8 | x8 | x8 | %55
 x8 | x8 | x8 | x8 | x8 | x8 | x8 | x8 | x8 | x8 | x8 | x8 | x8 | x8 | x8 | x8 | x8 | x8 || x8 | %74
 x8 | x8 | x8 | x8 | x8 | x8 | x8 | x8 | x8 | x8 | x8 ||[M:6/8] x6 | x6 | x6 | x6 | x6 | x6 | x6 | %92
 D C2 x3 | x6 | x6 | x6 | x6 | x6 | x6 | x6 | x6 | x6 | x6 | x6 | x6 | x6 | x6 | x6 | x6 | x6 | %110
 x6 | x6 | x6 | x6 | x6 | x6 | x6 | x6 | x6 | x6 | x6 | x6 | x6 | x6 | x6 ||[M:4/4] x8 | x8 | x8 | %128
 x8 | x8 | x8 | x8 | x8 | x8 | x8 | x8 || x8 | x8 | x8 | x8 | x8 | x8 | CD C2 x4 | x8 | x8 | x8 | %146
 x8 | x8 | x8 | x8 | x8 | x8 | x8 | x8 | x8 | x8 | x6 F2 | x8 | x8 | x8 | x8 | x8 | x8 | x8 | x8 | %165
 x8 | x8 | x8 | x8 | x8 | x8 | x8 | x8 | x8 | x8 | x8 | x8 | x8 | x8 | x8 | x8 | x8 | x8 |] %183
V:8
 x8 | x8 | x8 | x8 | x8 | x8 | x8 | x8 | x8 | x8 | x6 G,,2 | x8 | x8 | x8 | x8 | x8 | x8 | x8 | %18
 x8 | x8 | x8 | x8 | x8 | x8 | x8 | x8 | x8 || x8 | x8 | x8 | x8 | C,2 =B,,2 C,4 | x8 || x8 | x8 | %35
 x8 | x8 | x8 | x8 | x8 | x8 | x8 | x8 | x8 | x8 | x8 | x8 | x8 | x8 | x8 | x8 | x8 | x8 | x8 | %54
 x8 | x8 | x8 | x8 | x8 | ^F,,3 F,, G,,2 x2 | x8 | x8 | x8 | x8 | x8 | x8 | x8 | x8 | x8 | x8 | %70
 x8 | x8 | x8 || x8 | x8 | x8 | x8 | x8 | x4 D,2 C,2 | =B,,2 _B,,2 A,,2 G,,2 | A,,4 !fermata!D,,4 | %81
 x8 | x8 | x8 | x8 ||[M:6/8] x6 | x6 | x6 | x6 | x6 | x6 | x6 | x6 | x6 | x6 | x6 | x3 A,3/2 x3/2 | %97
 x6 | x6 | x6 | x6 | A,2 x4 | x6 | x6 | x6 | x6 | x6 | x6 | x6 | x6 | x6 | x6 | B, x5 | x6 | x6 | %115
 x6 | x6 | x6 | x6 | x6 | x6 | x6 | x6 | x6 | x6 ||[M:4/4] x8 | x8 | x8 | x8 | x8 | x8 | %131
 x4 A,2 B,2 | G,2 G,2 F,2 G,2 | C,4 B,,4 | x8 | x8 || x8 | x8 | x8 | x8 | x7 A, | A,2 x G, G, x3 | %142
 x8 | x8 | x8 | x4 G,,A,, B,,C, | A,,2 x6 | x8 | x8 | x8 | x8 | x8 | x8 | x8 | x8 | x8 | x8 | x8 | %158
 x8 | x8 | x8 | x8 | x8 | x8 | x8 | x8 | x8 | x8 | x6 A,A,, | x8 | x8 | x8 | x8 | x8 | x8 | x8 | %176
 x8 | x8 | x8 | x8 | x8 | x8 | x8 |] %183

